static/images/skills/bazel.svg

<svg xmlns="http://www.w3.org/2000/svg" xml:space="preserve" style="fill-rule:evenodd;clip-rule:evenodd;stroke-linejoin:round;stroke-miterlimit:2" viewBox="0 0 1200 900"><path d="M0 0h1200v900H0z" style="fill:#152c15"/><path d="M495.854 1039.26v135.39l-137.93-137.92v-135.4z" style="fill:#00701a" transform="translate(60.806 -528.541)scale(1.08727)"/><path d="m495.854 1039.26 138.055-137.931v135.401l-138.055 137.92z" style="fill:#004300" transform="translate(60.806 -528.541)scale(1.08727)"/><path d="M357.925 901.33v135.4L219.996 898.67V763.274zm413.913-138.056V898.67l-137.929 138.06v-135.4z" style="fill:#43a047" transform="translate(60.806 -528.541)scale(1.08727)"/><path d="m495.854 1039.26-137.93-137.931 137.93-138.055L633.909 901.33z" style="fill:#43a047" transform="translate(60.806 -528.541)scale(1.08727)"/><path d="M357.925 901.33 219.996 763.274l137.929-137.928 137.929 137.928z" style="fill:#76d275" transform="translate(60.806 -528.541)scale(1.08727)"/><path d="M633.91 901.33 495.853 763.274l138.055-137.928 137.929 137.928z" style="fill:#76d275" transform="translate(60.806 -528.541)scale(1.08727)"/></svg>

<?xml version="1.0" encoding="UTF-8" standalone="no"?>
<!DOCTYPE svg PUBLIC "-//W3C//DTD SVG 1.1//EN" "http://www.w3.org/Graphics/SVG/1.1/DTD/svg11.dtd">
<svg width="100%" height="100%" viewBox="0 0 1200 900" version="1.1" xmlns="http://www.w3.org/2000/svg" xmlns:xlink="http://www.w3.org/1999/xlink" xml:space="preserve" xmlns:serif="http://www.serif.com/" style="fill-rule:evenodd;clip-rule:evenodd;stroke-linejoin:round;stroke-miterlimit:2;">
    <rect x="0" y="0" width="1200" height="900" style="fill:rgb(21,44,21);"/>
    <g transform="matrix(4.79233,0,0,4.79233,293.291,143.291)">
        <g transform="matrix(0.226877,0,0,0.226877,-48.5119,-140.189)">
            <path d="M495.854,1039.26L495.854,1174.65L357.924,1036.73L357.924,901.33L495.854,1039.26Z" style="fill:rgb(0,112,26);"/>
        </g>
        <g transform="matrix(0.226877,0,0,0.226877,-48.5119,-140.189)">
            <path d="M495.854,1039.26L633.909,901.329L633.909,1036.73L495.854,1174.65L495.854,1039.26Z" style="fill:rgb(0,67,0);"/>
        </g>
        <g transform="matrix(0.226877,0,0,0.226877,-48.5119,-140.189)">
            <path d="M357.925,901.33L357.925,1036.73L219.996,898.67L219.996,763.274L357.925,901.33ZM771.838,763.274L771.838,898.67L633.909,1036.73L633.909,901.33L771.838,763.274Z" style="fill:rgb(67,160,71);"/>
        </g>
        <g transform="matrix(0.226877,0,0,0.226877,-48.5119,-140.189)">
            <path d="M495.854,1039.26L357.924,901.329L495.854,763.274L633.909,901.33L495.854,1039.26Z" style="fill:rgb(67,160,71);"/>
        </g>
        <g transform="matrix(0.226877,0,0,0.226877,-48.5119,-140.189)">
            <path d="M357.925,901.33L219.996,763.274L357.925,625.346L495.854,763.274L357.925,901.33Z" style="fill:rgb(118,210,117);"/>
        </g>
        <g transform="matrix(0.226877,0,0,0.226877,-48.5119,-140.189)">
            <path d="M633.91,901.33L495.853,763.274L633.908,625.346L771.837,763.274L633.91,901.33Z" style="fill:rgb(118,210,117);"/>
        </g>
    </g>
</svg>
